X:1
T:Throw Out the Life Line
T:Arr. by George Coles Stebbins, 1890
T:Throw Out the Life Line
T:Public Domain
T:Public Domain
T:Public Domain
C:Arr. by George Coles Stebbins, 1890
Z:Public Domain
%%score 1 ( 2 3 )
L:1/8
M:6/8
K:G
V:1 treble 
V:2 bass 
V:3 bass 
V:1
 [B,D][DB]>[DB] [DB][CA][B,G] | [DA][DB][Dc] [DB]3 | [Gd][Ge][Gd] [Gd][DB][DB][^CB][CA][CG] [DA]3 | %3
w: 1.~Throw out the life line a-|cross the dark wave;|There is a bro- ther whom some- one should save;|
w: 2.~Throw out the life line with|hand quick and strong:|Why do you tar- ry, why lin- ger so long?|
w: 3.~Throw out the life line to|dan- ger fraught men,|Sink- ing in an- guish where you’ve ne- ver been;|
w: 4.~Soon will the sea- son of|res- cue be o’er,|Soon will they drift to e- ter- ni- ty’s shore;|
w: 5.~This is the life line, oh,|tem- pest tossed men;|Baf- fled by waves of temp- ta- tion and sin;|
w: 6.~Je- sus is a- ble! To|you who are driv’n,|Far- ther and far- ther from God and from Heav’n;|
w: 7.~This is the life line, oh,|grasp it to- day!|See, you are reck- less- ly drift- ing a- way;|
 [B,D][DB]>[DB] [DB][CA][B,G] | [DA][DB][Dc] [DB]2 [DB] | [Gd][Ge]>[Gd] [Gd][GB]G | %6
w: Some- bo- dy’s bro- ther! O|who then will dare To|throw out the life line, his|
w: See! he is sink- ing; oh,|hast- en to- day And|out with the life boat! a-|
w: Winds of temp- ta- tion and|bil- lows of woe Will|soon hurl them out where the|
w: Haste, then, my bro- ther, no|time for de- lay, But|throw out the life line and|
w: Wild winds of pas- sion, your|strength can- not brave, But|Je- sus is might- y, and|
w: Help- less and hope- less, o’er-|whelmed by the wave; We|throw out the life line, ’tis|
w: Voic- es in warn- ing, shout|o- ver the wave, O|grasp the strong life line, for|
 [FA]G[DF] [DG]3 |:"^Refrain" [Gd][Gd]>[Gd] [Ge] [Gd]2 | [GB][GB]>[GB] [Gc] [GB]2 | %9
w: per- il to share?|||
w: way, then a- way!|||
w: dark wa- ers flow.|||
w: save them to- day.|||
w: Je- sus can save.|||
w: “Je- sus can save.”|||
w: Je- sus can save.|||
 [FA][FA][FA] [FA][EG]>[FA] | ([G-B]3 [Gd]3) :| [Ge][Ge][Ge] [Gd]<[GB][FA] | [DG]6 |] %13
w: ||||
w: ||||
w: ||||
w: ||||
w: ||||
w: ||||
w: ||||
V:2
 [G,,G,][G,,G,]>[G,,G,] [G,,G,][G,,G,][G,,G,] | [D,F,][D,G,][D,A,] G,3 | %2
w: ~ ~ ~ ~ ~ ~|~ ~ ~ ~|
 [G,B,][G,C][G,B,] [G,B,]G,G,[E,G,][E,G,][A,,A,] [D,F,]3 | G,G,>G, G,G,G, | %4
w: ~ ~ ~ ~ ~ ~ ~ ~ ~ ~|~ ~ ~ ~ ~ ~|
 [D,F,][D,G,][D,A,] [G,,G,]2 G, | [G,B,]C>[G,B,] [G,B,][G,D][G,B,] | [D,C][D,B,][D,A,] [G,,B,]3 |: %7
w: ~ ~ ~ ~ ~|~ Throw out the life line!|out the life line!|
 [G,B,][G,B,]>[G,B,] [G,C] [G,B,]2 | [G,D][G,D]>[G,D] [G,E] [G,D]2 | %9
w: Some- one is drift- ing|a- way; Some- one is|
 [D,D][D,D][D,D] [D,D][D,D]>[D,D] | ([G,-D]3 [G,B,]3) :| [C,C][C,C][C,C] [D,B,]<[D,D][D,C] | %12
w: sink- ing to- day. * *|||
 [G,,B,]6 |] %13
w: |
V:3
 x6 | x3 G,3 | x4 G,G, x6 | G,G,3/2G,G,G, x/ | x5 G, | x C3/2 x7/2 | x6 |: x6 | x6 | x6 | x6 :| %11
w: |~|~ ~|~ ~ ~ ~ ~|~|Throw||||||
 x6 | x6 |] %13
w: ||

